X:334
T:Wake up to Cape Breton
R:Reel
O:Cape Breton
C:Brenda Stubbert
S:Tune of the Month. May,1998.
D:Jerry Holland, Fiddler's Choice
Z:Transcription:Paul Stewart Cranford, chords:Mike Long
M:C|
L:1/8
K:A
e|:\
"E"BEEF "D"DEFD|"E"~E2GB "A"eBcA|"E"BEEF "D"DEFA|"Bm"B2AF DEFA|\
"E"BEEF "D"DEFD|"E"~E2GB "A"eBcA|
[1 "E"BEEF "D"DEFD|"Bm"B,A,B,D "E"~E2Ee:|[2 "E"BEEF "D"DEFA|"Bm"B/c/d AF "E"~E2E\
|:f|\
"Em"eBB=g efge|"D"fdcd ABdf|
"Em"eBB=g "C"efge|"D"dBAF "Em"~E2Ef|\
"Em"eBB=g efge|"D"fdcd ABdf|"G"=gefd ecdA|"D"B/c/d AF "Em"~E2E:|
